X:1
T:Transcendental Études
T:Transcendental Études
T:S. 139/3 "Paysage"
T:Franz Liszt
C:Franz Liszt
%%score { ( 1 5 ) | ( 2 3 4 ) }
L:1/8
Q:1/4=58
M:6/8
K:F
V:1 treble nm="Piano" snm="Pno."
V:5 treble 
V:2 bass 
V:3 bass 
V:4 bass 
V:1
"^Poco adagio" z6 | z6 | z6 | z2 z (!tenuto![Aa]3- | [Aa]3 [Bb]2 [cc'] | %5
 [dd']2!8va(!!<(! [ff'] [ee']2 [gg'] | [aa']3)!<)! ([aa']3- | [aa']2 [aa'] [=b=b']2 [^c'^c''] | %8
 [d'd'']2 [e'e''] [f'f'']3- |!>(! [f'f'']2 [e'e''] [d'd''])[e'e'']>[d'd'']!>)! | %10
 [c'c'']2!8va)! z z2 z | z6 |!8va(! (!arpeggio![fc'f'a']a[f'a'] [e'g'][d'f']f | %13
 [d'f'][c'e'][bd'] [df][bd'][ac']!8va)! | =b2 g [g_b]2 [ec']) | ([fa]A[fa] [eg][df]F | %16
 [df][ce][Bd]!<(! [DF][Bd][Ac]!<)! | =B2 G!>(! _B2 c)!>)! | .A!>(! x x !tenuto!A3-!>)! | %19
 A x x !tenuto!A3 | !tenuto!B3 !tenuto![Ac]3 | !tenuto![B_d-]3 dcB | (B2 _A) (!>!_B2 A) | %23
!>(! (B_A_G G{AG}F_E!>)! ||[K:Db] D) z z ([Ff]3- | [Ff]3 [Gg]2 [Aa] | [Bb]2 [dd'] [cc'][ee'][aa'] | %27
 [ff']) z z!<(! ([ff']3- | [ff']3 [gg']2!8va(! [aa'] | [bb']2 [d'd''] [c'c'']2 [e'e'']!<)! | %30
 [f'f'']) z z !^![f'f'']3- | [f'f'']2 z !^![f'f'']3- | [f'f'']2 z [f'f'']3- | %33
 [f'f'']2!8va)! z [ff']3- | [ff']2 z [Ff]3- | [Ff]3 [Ff]3 || %36
[K:F][Q:1/4=58]"^Un poco più animato il tempo" (.[Afa].[Ac].[Aca] .[B^cg].[Bdf].[FB] | %37
 .[^G=Bf].[Ace].[F_Bd] .[DF].[FBd].[FAc]) | (=B3 !>!_B2 c | .A) x x x2 x | %40
 .[^G=Bf] .[Ace].[F_Bd].[DF]!wedge![FBd] [FAc] | (=B3 !>!_B2 c | %42
"^poco rallentando" A) (.A.A .A.A.A | .A) (.=B.A .A.A.A | %44
 .A) (.[A,=FA].[A,EGA] .[A,DFA].[A,EGA].[A,DFA] | %45
 .[A,^CEA])!<(! (.[A,GB].[A,FA] .[A,EGA].[A,FA].[A,EGA])!<)! |!<(! [DF][_EG][=E^G]!<)! [FA]3- | %47
 [FA][F_A][EG] [^D^F][EG][=D=F] |!<(! [CE] [GB][^FA] [Bd]3-!<)! | %49
!>(! [Bd]!>![B_d][Ac] [^G=B][Ac]!>)![=G_B] | [FA] (.[FA].[Aca] .[B^cg].[Bdf].[FB]) | %51
 (.[^G=Bf].[Ace].[F_Bd] .[DF].[Fd].[^Fc]) | =B2 [G_B]2 !>![_DF_d][CEc] | %53
 [CFA] ([CFA]!wedge![Aca]) [GB^cg][FBdf][FB] | [^G=Bf][Ace][F_Bd] ([DF][Fd]) [^Fd] | %55
 !^!=B2 !^![G_B]2 (.[_DF_d].[CEc]) | [CFA] (.[FAc].[EGc] .[DFc].[EGc].[DFc]) | %57
 .[CEc] (.[GBd].[FAd] .[EGd].[FAd].[EGd]) | .[DFd] (.[FBdf].[FAcf] .[FGBf].[FBdf].[FAcf]) | %59
 .[FAf] (.[Aca].[Gcg]"^stringendo" .[Fcf].[Gcg].[Fcf]) | .[Ece] (.[Bdb].[Ada] .[Gdg].[Ada].[Gdg]) | %61
 .[Fdf] (.[dfd'].[cfc'] .[Bfb].[dfd'].[cfc']) | %62
 .[Afa]!8va(! (.[fbd'f'].[fac'f'] .[fgbf'].[fbd'f'].[fac'f']) | %63
 .[faf'] (.[bd'b'].[ac'a'] .[gbg'].[bd'b'].[ac'a']) |!ff! ([aa'][c'f'][aa'] [gg'][ff'][ac'] | %65
 [ff'][_e_e'][dd']!8va)! [fa][dd'][cc']) | ([Aa][c_e][Aa] [Gg][Ff][Ac] | %67
 [Ff][_E_e][Dd] [FA][Dd][Cc]) |!>(! ([A,A][C_E][A,A]!>)! [CEG][A,F][CE]) | %69
!>(! ([A,A][C_E][A,A]!>)! [CEG][A,F][CE]) | %70
"^ritenuto ed appasionato assai" x2 [^cea] [ce=b]2 [ce^c'] | x2 [ded']- [ded']2 [de^g] | %72
 x2 [c_e_a] [ceb]2 [cec'] | x2 [_d_e_d']- [ded']2 [deg] | x2 [B_d_g] [Bdf]2 [_GB_e] | %75
 x2 [F_A_c__e]- [FAce]2 [FA_d] | x2 [B_db] [Bd_a]2 [_GB_g] | x2 [_A_cf]3 z | z6 | z6 | x3 c3- | %81
 c x2 d3- | d x2 f3 | f3 f3 | !arpeggio![Afc'] z z [cc']3- | [cc']2 z [dd']3- | %86
 [dd']2 z!<(! [ff']3 | [ff']3!<)! [ff']3 |!8va(! [c'c'']3 !tenuto![c'c'']3 | %89
 !tenuto![c'c'']3 !tenuto![c'c'']3 | [f'f'']6- | [f'f'']6 | [f'f'']6 | [f'f'']6 | %94
 [f'f'']2!8va)! z z2 z | z6 | z6 | z6 |] %98
V:2
"_sempre legato e placido""^dolcissimo, una corda" F,6 | F,3 F,3 | =B,3 _B,2 C | A, F,4 F,- | %4
 F,3 F,3 | =B,3 [G,_B,]2 C | A, A,,4 A,,- |"^un poco cresc." [A,,^C,E,] A,,4 A,, | x3 A,3- | %9
"^poco rallentando" A,_A,G, F,G,F, | E,!<(! [G,_B,][^F,A,]!<)! [B,D]3- | %11
!>(! [B,D][B,_D][A,C] !arpeggio![^G,=B,][A,C][=G,_B,]!>)! | A,2 z"^cantando" (A,3- | A,3 B,2 C) | %14
 (D2 F E2 G | A) z z (A,3- | A,3 B,2 C | D2) F, (E,G,[G,C]) | A, z z [F,,,F,,]3- | %19
 [F,,,F,,]"^poco a poco crescendo" z z [F,,,F,,]3- | [F,,,F,,] z z [F,,,F,,]3- | %21
 [F,,,F,,]2 [F,,,F,,] [_G,,,_G,,]2 [=G,,,=G,,] | _A,,2 _D, (=D,2 A,,) | %23
 (_E,2 _A,,) _A,_G,-[G,A,] ||[K:Db]"^dolce" F, D,4 D,- | D,3 D,3 | [_F,=G,]3 _G,2 A, | %27
 F, D,,4 D,,- | D,,3 D,,3 | x D,,2 x D,,2 |"^rinforzando" x!<(! !>!F,,4!<)! F,, | %31
 x!<(! !>!F,,4!<)! F,, |"^poco a poco dimuendo e rall." x (F,4 F, | x) (F,4 F,-) | F,2 F,3 F,, | %35
 x2 F,3 F,, ||[K:F]"^dolcissimo" [CF]C[CF] [EG][DF]D | [DF][CE][B,D] B,[B,D][A,C] | %38
 =B,3!>(! _B,2 C!>)! | .A, (C!wedge![CF]) (.[EG].[DF] .D | %40
 .[DF] .[CE].[B,D].B,!wedge![B,D]) [A,C] | =B,3 _B,2 C | %42
 A,"^sotto voce e sempre dolcissimo" (.[A,,A,].[A,,A,] .[A,,A,].[A,,A,].[A,,A,] | %43
 .[A,,A,]) (.[A,,A,].[A,,A,] .[A,,A,].[A,,A,].[A,,A,] | %44
 .[A,,A,]) (.[A,,,A,,].[A,,,A,,] .[A,,,A,,].[A,,,A,,].[A,,,A,,] | %45
 .[A,,,A,,]) (.[A,,,A,,].[A,,,B,,] .[A,,,=B,,].[A,,,C,].[A,,,^C,]) | D,3- D,E,F, | G,6- | %48
 G,3- G,B,=B, | C6- | C"^poco a poco" (.[F,C].[F,CF] .[F,EG].[F,DF].[F,D]) | %51
"^più forte" (.[F,DF].[F,CE].[F,B,D] .[F,B,].[F,B,D].[=F,A,_E]) | [=B,D]2 [G,_B,]2 x2 | %53
 [F,A,] (!arpeggio![F,,C,F,A,]!wedge![F,CF])"^energico vibrante" [F,B,^CE][F,B,D][F,D] | %54
 [F,DF][F,CE][F,B,D] ([F,B,][F,B,D]) [=F,A,_E] | !^![=B,D]2 !^![G,_B,]2 x2 | %56
 [F,A,]"^dolce, sotto voce" (.[F,,F,].[F,,F,] .[F,,F,].[F,,F,].[F,,F,]) | %57
 .[F,,F,] (.[F,,F,].[F,,F,] .[F,,F,].[F,,F,].[F,,F,]) | %58
 .[F,,F,] (.[F,,F,].[F,,F,] .[F,,F,].[F,,F,].[F,,F,]) | %59
 .[F,,F,] (.[F,CF].[F,CE]"^crescendo" .[F,CD].[F,CE].[F,CD]) | %60
 .[F,C] (.[F,DG].[F,DF] .[F,DE].[F,DF].[F,DE]) | %61
 .[F,D]"^più rinforz." (.[F,DB].[F,CA] .[F,B,G].[F,DB].[F,CA]) | %62
 .[F,A,F] (.[F,B,DF].[F,A,CF] .[F,G,B,F].[F,B,DF].[F,A,CF]) | %63
 .[F,A,F] (.[F,,D,B,].[F,,C,A,] .[F,,B,,G,].[F,,D,B,].[F,,C,A,]) | %64
!ped! [F,,C,A,] z !>![F,C_EA]3 !>![F,CEA]- | [F,CEA]2 !>![F,C_EA]3 !wedge![F,CEA] | %66
 z2 [F,,C,_E,A,]3 [F,,C,E,A,]- | [F,,C,E,A,]2 [F,,C,_E,A,]3 !wedge![F,,C,E,A,] | %68
 z2 ([F,,C,_E,F,]3 !wedge![F,,C,E,A,]) | %69
"^poco rit." z2 ([F,,C,_E,F,]3 !wedge![F,,C,E,A,])!ped-up! |!ped! [E,,^C,=E,]2!f! x4!ped-up! | %71
!ped! [E,,=B,,D,E,]2 x4!ped-up! |!ped! [_E,,C,_E,]2 x4!ped-up! |!ped! [_E,,B,,_D,_E,]2 x4!ped-up! | %74
!ped! [_D,,B,,_D,]2 x4!ped-up! | [_D,,_C,_D,]2 x4 | [_D,,B,,_D,]2 x4 | [_D,,_C,_D,]2 x4 | %78
 (F,!>!__E,F,"^ritenuto"_D,_C,_A,, | F,,)!>!__E,,!>(!F,,_D,,F,,!>)!=B,,, | %80
"^dolce, pastorale" C,,6 |{/=B,,,} C,,6 |{/=B,,,} C,,6- | C,,6 | z (F,[FA] [EG][DF]F,) | %85
 [CE] (F,[GB] [FA][EG]F,) | [DF] F,[DF] E D2 | C D2 B, C2 | %88
"^sempre più dolce e rallentando" [F,A,] (F,,[F,A,] [E,G,][D,F,]F,,) | E, F,2 D, E,2 | %90
 x3 !tenuto![F,,A,,]3 | !tenuto![F,,A,,]3 !tenuto![F,,A,,]3 | [F,,C,] x2 !tenuto![F,,A,,]3 | %93
"^estinto" !tenuto![F,,A,,]3 !tenuto![F,,A,,]3 | [F,,C,] x2"^ritardando" [F,,A,,]3- | %95
 [F,,A,,]!<(! x2 [F,,A,,]3!<)! |!>(!{/=B,,,C,,D,,} [F,,A,,]3!>)! !arpeggio![F,,A,,]3- | %97
 [F,,A,,]6 |] %98
V:3
 !arpeggio![F,CFA]C[FA] [EG][DF]F, | [DF][CE][B,D] F,[B,D][A,C] | _A,G,[D,F,] [_D,F,][C,E,][E,G,] | %3
 F, F,[FA][EG][DF]F, | [DF][CE][B,D] F,[B,D][A,C] | _A,G,[D,F,] _D,C,D, | %6
 F, A,,[F,A,][E,G,][D,F,]A,, | x A,,[G,B,][F,A,][E,G,]A,, | [D,F,]D,,G, z D,C, | %9
 =B,,3 !arpeggio![G,,B,,]3 | !arpeggio!C,, z z z G,=F, | E,3 [C,E,]3 | F,2 z F,, z z | %13
 z2 z F, z z | _A, z G, C, z z | F, x x F,, z z | z2 z F, z z | _A,G,D, _D,2 C, | .F, x x x x2 | %19
 x6 | x6 | x6 | _A,,,3 A,,,3 | _A,,,3- A,,,2 A,,, ||[K:Db] !arpeggio![D,,A,,D,] D,[DF][CE][B,D]D, | %25
 [B,D][A,C][G,B,] D,[G,B,][F,A,] | D,D,B,, [__B,,E,]A,,C, | D, D,,[D,F,][C,E,][B,,D,]D,, | %28
 [B,,D,][A,,C,][G,,B,,] D,,[G,,B,,][F,,A,,] | [_F,,=G,,]D,,B,, [E,,_G,,__B,,]D,,[A,,-C,] | %30
 [D,,A,,] (F,,[D,F,][C,E,][B,,D,]F,,- | .[F,,=A,,C,]) F,,[E,G,][D,F,][C,E,]F,,- | %32
 .[F,,B,,D,] F,[DF][CE][B,D]F,- | [F,=A,C] F,[EG] [DF] [CE]2 | ([CE] [B,D]2) ([B,D] [=A,C]2) | %35
 ([=A,C] [=G,B,]2)"^smorz." ([CE] [B,D]2) ||[K:F] (.F,.F,.F, .F,.F,.F, | .F,.F,.F, .F,.F,.F,) | %38
 ([F,_A,][E,G,][D,F,] [_D,F,][C,E,][E,G,] | F,) F,F, F,2 F,- | F, F,F,F,F, F, | %41
 ([F,_A,][E,G,][D,F,] !>![_D,F,][C,E,][E,G,] | F,) x x4 | x6 | x6 | x6 | D,, z z x x2 | %47
 z G,,_A,, =A,,B,,=B,, | C, z z x x x | z C,_D, =D,_E,=E, | F, x x4 | x6 | %52
 (_A,G,) (F,E,) !>![_D,G,B,][C,G,B,] | x6 | x6 | (_A,G,) (F,!^!E,) (.[_D,G,B,].[C,G,B,]) | x6 | %57
 x6 | x6 | x6 | x6 | x6 | x6 | x6 | x6 | x6 | x6 | x6 | x6 | x6 | x6 | x6 | x6 | x6 | x6 | x6 | %76
 x6 | x6 | x __E,2 _D,2 x | x (__E,,2 _D,,2 =B,,,) | x6 | x6 | x6 | x6 | x6 | x6 | x3 CB,F, | %87
 A,B,F, G,A,F,- | x6 | C,D,F,, B,,C,F,, | [A,,C,] F,,E,, D,,E,,D,, | C,,D,,C,, B,,,C,,B,,, | %92
 A,,, F,,E,, D,,E,,D,, | C,,D,,C,, B,,,C,,B,,, | A,,, F,,E,, !>!D,,3- | D,, D,,C,, B,,,2 =B,,, | %96
 C,,2 A,,, F,,,3- | F,,,6 |] %98
V:4
 x3 x2 F,- | x6 | x6 | x6 | x6 | x6 | x6 | x6 | x6 | x6 | x6 | x6 | x6 | x6 | x6 | x6 | x6 | x6 | %18
 x6 | x6 | x6 | x6 | x6 | x3 (C,_A,,C,) ||[K:Db] x6 | x6 | x6 | x6 | x6 | x6 | x6 | x6 | x6 | x6 | %34
 x6 | x6 ||[K:F] x6 | x6 | x6 | x6 | x6 | x6 | x6 | x6 | x6 | x6 | x6 | x6 | x6 | x6 | x6 | x6 | %52
 x6 | x6 | x6 | x6 | x6 | x6 | x6 | x6 | x6 | x6 | x6 | x6 | x6 | x6 | x6 | x6 | x6 | x6 | x6 | %71
 x6 | x6 | x6 | x6 | x6 | x6 | x6 | x6 | x6 | x6 | x6 | x6 | x6 | x6 | x6 | x6 | x6 | x6 | x6 | %90
 x6 | x6 | x6 | x6 | x6 | x6 | x6 | x6 |] %98
V:5
 x6 | x6 | x6 | x6 | x6 | x2!8va(! x4 | x6 | x6 | x6 | x6 | x2!8va)! x4 | x6 |!8va(! x6 | %13
 x6!8va)! | fd=B _dc_B | x6 | x6 | FD=B, GE[_B,E] | F A,[_E_G] [_DF][CE]A, | %19
 [C_E] A,[E_G] [_DF][CE]A, | [_E_G][_DF]B, [EG][DF]C | [_DF][C_E]!<(![B,D] [B,D][CE][D_F]!<)! | %22
 [_D=F]_A,[DF] [=B,F]A,[B,F] | [C_G]_A,C x x2 ||[K:Db] x6 | x6 | x6 | x6 | x5!8va(! x | x6 | x6 | %31
 x6 | x6 | x2!8va)! x4 | x6 | x6 ||[K:F] x6 | x6 | [F_A][EG][DF] [_DF][CE][EG] | %39
 F ([Ac]!wedge![Aca]) .[B^cg].[Bdf] .[FB] | x6 | [F_A][EG][DF] [_DF][CE][EG] | %42
 F ^F[EG] [DF][EG][DF] | [^CE] G^F [EG]F[EG] | [D^F] x x4 | x6 | [A,A] x x z ^C=C | =B,2 z4 | %48
 x3 z G=F | E2 x4 | x6 | x6 | ([=F-_A][FG]) (_DC) x2 | x6 | x6 | ([=F-_A][FG]) (_D!^!C) x2 | x6 | %57
 x6 | x6 | x6 | x6 | x6 | x!8va(! x5 | x6 | x6 | x3!8va)! x3 | x6 | x6 | x6 | x6 | %70
 (!>![A,A][^CE] [A,A][C^G][A,^F][CE]) | !>![^G,^G][=B,D] [G,G][B,^F][G,E][B,D] | %72
 (!>![_A,_A][C_E] [A,A][CG][A,F][CE]) | (!>![G,G][B,_D] [G,G][B,F][G,_E][B,D]) | %74
 ([_G,_G][B,_D] [G,G][B,F][G,_E][B,D]) | ([F,__E][_A,_C] [F,E][A,_D][F,C]A,) | %76
 ([_G,_G][B,_D] [G,G][B,F][G,_E][B,D]) | ([F,__E][_A,_C] [F,E][A,_D][F,C]A,) | x6 | x6 | %80
 z (C[FA] [EG][DF]C) | [EG] (D[GB] [FA][EG]D) | [FA] (F[df] [ce][Bd]F) | ([Ac][Bd]F) ([GB][Ac]F) | %84
 x6 | x6 | x6 | x6 |!8va(! x6 | x6 | x6 | x6 | x6 | x6 | x2!8va)! x4 | x6 | x6 | x6 |] %98

